X:1     %Music
T:Turpin Hero     %Tune name
B: The Jolly Herring, A&C Black, 1980     %Tune infos
M:4/4     %Meter
L:1/8     %
K:Dm
A,2 |D2 D2 E2 E2 |F2 FG A2 A,2 |D2 D2 E2 E2 | F2 FG A2
w:As Tur-pin rode a-cross the_ moor He saw a law-yer rid-ing be-fore 
 FG |A2 c2 c2 c2 |A2 c2 c3 c |d2 A2 A2 F2 | G2 E2 C4 |
w:"Kind_ sir," says he, "aren't you a-fraid Of Tur-pin, that mis-chiev-ous blade?"
D4 A4 |G2 E2 G2 C2 |D4 A4 | G2 EF D4-|D6 |]
w: O rare Tur-pin he-ro. O rare Tur-pin_ O_ 